X: 24
T: L'EMERAUDE
C: S.DURAND
M: 4/4
L: 1/8
Q:1/4=80
K:F 
|F/2E/2D/2A/2BA F/2E/2D/2A/2BA|F/2E/2F/2A/2dA G/2d/2c/2B/2A3/2 z/2 |B/2c
/2B/2A/2BB B/2c/2B/2G/2E3/2 z/2 |B/2c/2B/2A/2G_G/2=G/2 G/2F/2G/2_A/2=A/2
F/2E/2D/2|
F/2E/2D/2A/2BA F/2E/2D/2A/2BA|F/2E/2F/2A/2dA G/2d/2c/2B/2A3/2 z/2 |B/2c/
2B/2A/2BB B/2c/2B/2G/2E3/2 z/2 |B/2c/2B/2A/2G_G/2=G/2 A/2F/2ED3/2 z/2 |
c/2f/2e/2c/2d3/2 z/2 A/2c/2=B/2G/2A3/2 z/2 |=B/2A/2F/2c/2=B/2F/2F/2d/2 c
/2G/2A/2_B/2A3/2 z/2 |c/2f/2e/2c/2d3/2 z/2 A/2c/2=B/2G/2A3/2 z/2 |=B/2A/
2F/2c/2=B/2F/2F/2d/2 c/2_B/2c/2_d/2=d3/2|
